X:1
T:Ode To Joy (9 th Symphony) 
T:L. V. Beethoven
T:Ode To Joy (9th Symphony)
Z:Ode To Joy (9th Symphony)
L:1/8
Q:1/4=90
M:4/4
K:C
V:1 treble-8 nm="Classical Guitar" snm="Guit."
V:1
 !3!C/G/!2!E/G/ C/G/E/G/ C/G/!4!F/G/ C/G/F/G/ | C/G/E/G/ C/G/E/G/ C/G/F/G/ C/G/F/G/ | %2
 [Ce]/G/[Ee]/G/ !1![Cf]/G/!4![Eg]/G/ !2![B,g]/G/!1![Df]/G/ [B,e]/G/!4![Dd]/G/ | %3
 !1![A,c]/G/!2![Ec]/G/ !4![A,d]/G/[Ee]/G/ !3![G,e]/D/G/D/ [G,d]/D/G/D/ | %4
 [Ce]/G/[Ee]/G/ [Cf]/G/[Eg]/G/ [B,g]/G/[Df]/G/ [B,e]/G/[Dd]/G/ | %5
 [A,c]/G/[Ec]/G/ [A,d]/G/[Ee]/G/ [G,d]/D/G/D/ [Cc]G | %6
 !2!!4![B,d]/G/[Dd]/G/ !3![Ce]/G/!2![Ec]/G/ [B,d]/G/e/!1!f/ [Ce]/G/[Ec]/G/ | %7
 [B,d]/G/e/f/ [E,e]/!1!^G/!4!d/G/ !1![A,c]/!3!A/!2!!4![^F,d]/A/ !3![G,B]2 | %8
 [Ce]/G/[Ee]/G/ [Cf]/G/[Eg]/G/ [B,g]/G/[Df]/G/ [B,e]/G/[Dd]/G/ | %9
 [A,c]/G/[Ec]/G/ [A,d]/G/[Ee]/G/ [G,d]/G/D/c/ [CEGc]2 |] %10

